X: 1
T: Flaming Drones, The
M: 3/2
L: 1/8
R: three-two
K: Amaj
Aa~a2 efed cdec|dB~B2 E3B dBGB|
AcBd cedf effe|a2.e2 fedB BAGB:|
|:A/A/AcA .eAfA eAA/A/A|fdad d/d/dfd edcB|
A2cA .eAaA eAA/A/A|dAed ec~c2 dBGB:|
